icons/mini/chart-bar.svg

<svg width="20" height="20" viewBox="0 0 20 20" fill="none" xmlns="http://www.w3.org/2000/svg">
<path d="M15.5 2C14.6716 2 14 2.67157 14 3.5V16.5C14 17.3284 14.6716 18 15.5 18H16.5C17.3284 18 18 17.3284 18 16.5V3.5C18 2.67157 17.3284 2 16.5 2H15.5Z" fill="#0F172A"/>
<path d="M9.5 6C8.67157 6 8 6.67157 8 7.5V16.5C8 17.3284 8.67157 18 9.5 18H10.5C11.3284 18 12 17.3284 12 16.5V7.5C12 6.67157 11.3284 6 10.5 6H9.5Z" fill="#0F172A"/>
<path d="M3.5 10C2.67157 10 2 10.6716 2 11.5V16.5C2 17.3284 2.67157 18 3.5 18H4.5C5.32843 18 6 17.3284 6 16.5V11.5C6 10.6716 5.32843 10 4.5 10H3.5Z" fill="#0F172A"/>
</svg>

<svg xmlns="http://www.w3.org/2000/svg" viewBox="0 0 20 20" fill="currentColor" aria-hidden="true" data-slot="icon">
  <path d="M15.5 2A1.5 1.5 0 0 0 14 3.5v13a1.5 1.5 0 0 0 1.5 1.5h1a1.5 1.5 0 0 0 1.5-1.5v-13A1.5 1.5 0 0 0 16.5 2h-1ZM9.5 6A1.5 1.5 0 0 0 8 7.5v9A1.5 1.5 0 0 0 9.5 18h1a1.5 1.5 0 0 0 1.5-1.5v-9A1.5 1.5 0 0 0 10.5 6h-1ZM3.5 10A1.5 1.5 0 0 0 2 11.5v5A1.5 1.5 0 0 0 3.5 18h1A1.5 1.5 0 0 0 6 16.5v-5A1.5 1.5 0 0 0 4.5 10h-1Z"/>
</svg>
